src/assets/images/head.svg

<svg width="51" height="133" viewBox="0 0 51 133" fill="none" xmlns="http://www.w3.org/2000/svg">
<path d="M46.6822 10.6242V127.888C46.6822 129.384 45.4701 130.615 43.9551 130.615H7.026C5.5299 130.615 4.29893 129.403 4.29893 127.888V10.6242H46.6822ZM2.42407 8.73041V127.888C2.42407 130.426 4.48831 132.509 7.04494 132.509H43.974C46.5117 132.509 48.5949 130.445 48.5949 127.888V8.73041H2.42407Z" fill="black"/>
<path d="M0 0H51V5.37839H0V0Z" fill="black"/>
<path d="M22.4794 55.1095V44.8073L24.5247 44.6368V48.8411H26.4564V44.7883L28.5017 44.6179V54.9202L26.4564 55.0906V50.6781H24.5247V54.9202L22.4794 55.1095Z" fill="black"/>
<path d="M23.1233 68.8775V58.4805H28.407L28.2366 60.1092H25.1686V62.59H27.3654L27.3465 64.3323H25.1686V67.2488H28.5206L28.3502 68.8775H23.1233Z" fill="black"/>
<path d="M21.8355 82.7401L24.0323 72.4757L26.9298 72.3431L29.1835 82.6454L26.9677 82.7211L26.5889 80.4864H24.1081L23.6725 82.7211H21.8355V82.7401ZM24.4679 78.8388H26.1912L25.2443 73.8581L24.4679 78.8388Z" fill="black"/>
<path d="M22.6309 86.2057H24.7709C26.1344 86.2057 27.1571 86.6413 27.8389 87.5124C28.5206 88.3836 28.8426 89.6903 28.8426 91.4515C28.8426 92.3795 28.71 93.2317 28.4638 94.0082C28.2176 94.7846 27.801 95.4096 27.2518 95.883C26.7026 96.3565 25.9829 96.6027 25.1307 96.6027H22.6309V86.2057ZM24.9413 94.974C25.642 94.974 26.1344 94.671 26.3996 94.065C26.6647 93.459 26.8162 92.7204 26.8162 91.8303V91.3568C26.8162 90.713 26.7783 90.1448 26.7026 89.6524C26.6268 89.16 26.4374 88.7245 26.1534 88.3646C25.8693 88.0048 25.4527 87.8155 24.8845 87.8155H24.6573V94.974H24.9413Z" fill="black"/>
</svg>

<svg width="51" height="133" fill="none" xmlns="http://www.w3.org/2000/svg"><path d="M46.682 10.624v117.264a2.728 2.728 0 0 1-2.727 2.727H7.026a2.728 2.728 0 0 1-2.727-2.727V10.624h42.383ZM2.424 8.73v119.158a4.627 4.627 0 0 0 4.62 4.621h36.93a4.627 4.627 0 0 0 4.62-4.621V8.73H2.425ZM0 0h51v5.378H0V0Z" fill="#000"/><path d="M22.48 55.11V44.806l2.045-.17v4.204h1.931v-4.053l2.046-.17V54.92l-2.046.17v-4.412h-1.931v4.242l-2.046.19ZM23.123 68.877V58.481h5.284l-.17 1.628h-3.068v2.481h2.196l-.018 1.742h-2.178v2.917h3.352l-.17 1.629h-5.228ZM21.835 82.74l2.197-10.264 2.898-.133 2.253 10.302-2.215.076-.38-2.235h-2.48l-.436 2.235h-1.837v.02Zm2.633-3.901h1.723l-.947-4.98-.776 4.98ZM22.63 86.206h2.14c1.364 0 2.387.435 3.069 1.306.682.872 1.004 2.178 1.004 3.94a8.42 8.42 0 0 1-.38 2.556 4.04 4.04 0 0 1-1.211 1.875c-.55.474-1.27.72-2.121.72h-2.5V86.206Zm2.311 8.768c.701 0 1.193-.303 1.459-.909.265-.606.416-1.345.416-2.235v-.473c0-.644-.038-1.212-.113-1.705a2.728 2.728 0 0 0-.55-1.287c-.284-.36-.7-.55-1.268-.55h-.228v7.159h.284Z" fill="#000"/></svg>
